!!!OTL: WOHL UNTER EINER LINDE SCHLIEF ICH DIE NACHT
!!!ARE: Europa, Mitteleuropa, Deutschland
!!!SCT: Z0229
!!!YEM: Copyright 1995, estate of Helmut Schaffrath.
**kern
*ICvox
*Ivox
*M2/4
*k[f#]
*G:
{8d
=1
8.g
16d
8.g
16b
=2
8b
8g
4a}
=3
{4g
16d
16B
8d
=4
4B
8r}
{16b
16cc
=5
8dd
8dd
8dd
16b
16cc
=6
8dd
8b
4g}
=7
{4b
16dd
16cc
8a
=8
4g
8r}
==
!!!AGN: Romanze, enttaeuschte Liebe
!!!ONB: ESAC (Essen Associative Code) Database: ZUCCAL
!!!AMT: simple duple
!!!AIN: vox
!!!EED: Helmut Schaffrath
!!!EEV: 1.0
*-
